public/images/poses-sm/SeatedForwardBend.svg

<svg width="800" height="900" fill="none" xmlns="http://www.w3.org/2000/svg"><path d="M219.801 573.401c11.898-18.514 48.269-56.573 71.516-65.077 23.247-8.498 32.29-12.15 39.745-22.001 7.455-9.851-1.749-71.252 0-93.504 1.749-22.25 28.247-45.339 28.247-45.339l-20.476-31.165s-21.518 20.377-54.515 44.721c-32.996 24.341-66.994 62.534-96.49 98.037-29.495 35.502-75.203 86.395-75.203 86.395l23.707 44.36 83.469-16.427Z" fill="#fff" stroke="#000" stroke-width="5" stroke-miterlimit="10"/><path d="M219.801 573.401c11.898-18.514 48.269-56.573 71.516-65.077 23.247-8.498 32.29-12.15 39.745-22.001 7.455-9.851-1.749-71.252 0-93.504 1.749-22.25 28.247-45.339 28.247-45.339l-20.476-31.165s-21.518 20.377-54.515 44.721c-32.996 24.341-66.994 62.534-96.49 98.037-29.495 35.502-75.203 86.395-75.203 86.395l23.707 44.36 83.469-16.427Z" stroke="#000" stroke-width="5" stroke-miterlimit="10"/><path d="M112.625 545.468c-12.539 15.982-20.96 37.701-19.289 59.11 4.875 62.251 79.102 69.209 116.775 69.209 25.651 0 114.68-9.169 153.57-1.707 52.913 10.155 234.772 1.001 320.07 3.296 11.021.287 22.422-10.432 20.758-21.344-7.681-50.485 13.709-78.909-10.863-99.334-4.412-3.666-13.229-4.509-14.704 1.041-1.876 7.277 2.507 16.389 1.656 33.717-.491 10.035-9.537 19.96-17.675 32.711-15.378 14.292-54.768 14.189-63.881 13.41-33.388-2.806-71.184-5.537-99.45-12.25-79.049-18.814-108.78-20.986-187.653-38.627-61.949-13.857-119.298-7.241-148.338 2.454l56.201-13.751s-42.282-4.636-58.596-10.078c-16.309-5.435-48.581-17.857-48.581-17.857Z" fill="#fff" stroke="#000" stroke-width="5" stroke-miterlimit="10"/><path d="M112.625 545.468c-12.539 15.982-20.96 37.701-19.289 59.11 4.875 62.251 79.102 69.209 116.775 69.209 25.651 0 114.68-9.169 153.57-1.707 52.913 10.155 234.772 1.001 320.07 3.296 11.021.287 22.422-10.432 20.758-21.344-7.681-50.485 13.709-78.909-10.863-99.334-4.412-3.666-13.229-4.509-14.704 1.041-1.876 7.277 2.507 16.389 1.656 33.717-.491 10.035-9.537 19.96-17.675 32.711-15.378 14.292-54.768 14.189-63.881 13.41-33.388-2.806-71.184-5.537-99.45-12.25-79.049-18.814-108.78-20.986-187.653-38.627-61.949-13.857-119.298-7.241-148.338 2.454l56.201-13.751s-42.282-4.636-58.596-10.078c-16.309-5.435-48.581-17.857-48.581-17.857ZM330.852 397.646s-18.288-20.324-46.402-6.501c-35.157 17.291-24.497 87.112 36.632 72.556" stroke="#000" stroke-width="5" stroke-miterlimit="10"/><path d="M302.781 450.238s137.231 112.299 165.846 127.708c28.609 15.406 136.702 51.846 136.702 51.846 19.602 8.105 31.315 21.364 57.089 25.238 25.781 3.873 24.895.09 23.771-3.648-1.125-3.736-47.006-42.579-69.468-41.104-7.394.484-8.368-.174-12.197-1.103l-122-63.623-151.672-147.904" fill="#fff"/><path d="M302.781 450.238s137.231 112.299 165.846 127.708c28.609 15.406 136.702 51.846 136.702 51.846 19.602 8.105 31.315 21.364 57.089 25.238 25.781 3.873 24.895.09 23.771-3.648-1.125-3.736-47.006-42.579-69.468-41.104-7.394.484-8.368-.174-12.197-1.103l-122-63.623-151.672-147.904" stroke="#000" stroke-width="5" stroke-miterlimit="10"/><path d="M302.781 450.238s137.231 112.299 165.846 127.708c28.609 15.406 136.702 51.846 136.702 51.846 19.602 8.105 31.315 21.364 57.089 25.238 25.781 3.873 24.895.09 23.771-3.648-1.125-3.736-47.006-42.579-69.468-41.104-7.394.484-8.368-.174-12.197-1.103l-122-63.623-151.672-147.904" stroke="#000" stroke-width="5" stroke-miterlimit="10"/><path d="M321.481 262.869c-7.012-19.846-35.246-63.324-77.528-23.804-26.841 25.09-70.002 58.587-102.586 50.263-32.579-8.32-7.691 66.41 36.605 70.426 44.291 4.017 85.909-22.539 98.139-58.85 12.231-36.318 45.37-38.035 45.37-38.035Z" fill="#000" stroke="#000" stroke-width="5" stroke-miterlimit="10"/><path d="M325.784 321.957c-5.654-10.053-.843-19.923-2.747-32.46-3.018-19.922 21.266-39.481 43.737-38.14 29.673 1.767 30.853 107.799 13.656 109.59-10.181 1.063-28.714-7.568-42.163-24.5-4.323-5.443-12.483-14.49-12.483-14.49Z" fill="#fff" stroke="#000" stroke-width="5" stroke-miterlimit="10"/><path d="M325.784 321.957c-5.654-10.053-.843-19.923-2.747-32.46-3.018-19.922 21.266-39.481 43.737-38.14 29.673 1.767 30.853 107.799 13.656 109.59-10.181 1.063-28.714-7.568-42.163-24.5-4.323-5.443-12.483-14.49-12.483-14.49Z" stroke="#000" stroke-width="5" stroke-miterlimit="10"/><path d="M379.16 263.757c-.439 18.598-14.222 52.217-37.551 46.047-26.223-6.946-15.566 8.787-13.526 13.74 2.042 4.949 14.77 14.329 12.148 15.731-2.621 1.394-38.788-12.132-42.268-38.97-3.477-26.84 3.103-40.788 17.043-49.006 13.939-8.219 42.827-9.552 56.674-.938 13.845 8.617 7.48 13.396 7.48 13.396Z" fill="#000" stroke="#000" stroke-width="5" stroke-miterlimit="10"/><path d="M280.209 364.135c-3.703 8.687 13.041 14.312 22.573 15.247 9.533.94 24.174 3.987 28.477 11.652M613.035 635.756c4.495 8.014 8.056 28.034 6.933 39.397" stroke="#000" stroke-width="5" stroke-miterlimit="10"/></svg>

<svg width="800" height="900" viewBox="0 0 800 900" fill="none" xmlns="http://www.w3.org/2000/svg">
<path d="M219.801 573.401C231.699 554.887 268.07 516.828 291.317 508.324C314.564 499.826 323.607 496.174 331.062 486.323C338.517 476.472 329.313 415.071 331.062 392.819C332.811 370.569 359.309 347.48 359.309 347.48L338.833 316.315C338.833 316.315 317.315 336.692 284.318 361.036C251.322 385.377 217.324 423.57 187.828 459.073C158.333 494.575 112.625 545.468 112.625 545.468L136.332 589.828L219.801 573.401Z" fill="white" stroke="black" stroke-width="5" stroke-miterlimit="10"/>
<path d="M219.801 573.401C231.699 554.887 268.07 516.828 291.317 508.324C314.564 499.826 323.607 496.174 331.062 486.323C338.517 476.472 329.313 415.071 331.062 392.819C332.811 370.569 359.309 347.48 359.309 347.48L338.833 316.315C338.833 316.315 317.315 336.692 284.318 361.036C251.322 385.377 217.324 423.57 187.828 459.073C158.333 494.575 112.625 545.468 112.625 545.468L136.332 589.828L219.801 573.401Z" stroke="black" stroke-width="5" stroke-miterlimit="10"/>
<path d="M112.625 545.468C100.086 561.45 91.6644 583.169 93.3362 604.578C98.2112 666.829 172.438 673.787 210.111 673.787C235.762 673.787 324.791 664.618 363.681 672.08C416.594 682.235 598.453 673.081 683.751 675.376C694.772 675.663 706.173 664.944 704.509 654.032C696.828 603.547 718.218 575.123 693.646 554.698C689.234 551.032 680.417 550.189 678.942 555.739C677.066 563.016 681.449 572.128 680.598 589.456C680.107 599.491 671.061 609.416 662.923 622.167C647.545 636.459 608.155 636.356 599.042 635.577C565.654 632.771 527.858 630.04 499.592 623.327C420.543 604.513 390.812 602.341 311.939 584.7C249.99 570.843 192.641 577.459 163.601 587.154L219.802 573.403C219.802 573.403 177.52 568.767 161.206 563.325C144.897 557.89 112.625 545.468 112.625 545.468Z" fill="white" stroke="black" stroke-width="5" stroke-miterlimit="10"/>
<path d="M112.625 545.468C100.086 561.45 91.6644 583.169 93.3362 604.578C98.2112 666.829 172.438 673.787 210.111 673.787C235.762 673.787 324.791 664.618 363.681 672.08C416.594 682.235 598.453 673.081 683.751 675.376C694.772 675.663 706.173 664.944 704.509 654.032C696.828 603.547 718.218 575.123 693.646 554.698C689.234 551.032 680.417 550.189 678.942 555.739C677.066 563.016 681.449 572.128 680.598 589.456C680.107 599.491 671.061 609.416 662.923 622.167C647.545 636.459 608.155 636.356 599.042 635.577C565.654 632.771 527.858 630.04 499.592 623.327C420.543 604.513 390.812 602.341 311.939 584.7C249.99 570.843 192.641 577.459 163.601 587.154L219.802 573.403C219.802 573.403 177.52 568.767 161.206 563.325C144.897 557.89 112.625 545.468 112.625 545.468Z" stroke="black" stroke-width="5" stroke-miterlimit="10"/>
<path d="M330.852 397.646C330.852 397.646 312.564 377.322 284.45 391.145C249.293 408.436 259.953 478.257 321.082 463.701" stroke="black" stroke-width="5" stroke-miterlimit="10"/>
<path d="M302.781 450.238C302.781 450.238 440.012 562.537 468.627 577.946C497.236 593.352 605.329 629.792 605.329 629.792C624.931 637.897 636.644 651.156 662.418 655.03C688.199 658.903 687.313 655.12 686.189 651.382C685.064 647.646 639.183 608.803 616.721 610.278C609.327 610.762 608.353 610.104 604.524 609.175L482.524 545.552L330.852 397.648" fill="white"/>
<path d="M302.781 450.238C302.781 450.238 440.012 562.537 468.627 577.946C497.236 593.352 605.329 629.792 605.329 629.792C624.931 637.897 636.644 651.156 662.418 655.03C688.199 658.903 687.313 655.12 686.189 651.382C685.064 647.646 639.183 608.803 616.721 610.278C609.327 610.762 608.353 610.104 604.524 609.175L482.524 545.552L330.852 397.648" stroke="black" stroke-width="5" stroke-miterlimit="10"/>
<path d="M302.781 450.238C302.781 450.238 440.012 562.537 468.627 577.946C497.236 593.352 605.329 629.792 605.329 629.792C624.931 637.897 636.644 651.156 662.418 655.03C688.199 658.903 687.313 655.12 686.189 651.382C685.064 647.646 639.183 608.803 616.721 610.278C609.327 610.762 608.353 610.104 604.524 609.175L482.524 545.552L330.852 397.648" stroke="black" stroke-width="5" stroke-miterlimit="10"/>
<path d="M321.481 262.869C314.469 243.023 286.235 199.545 243.953 239.065C217.112 264.155 173.951 297.652 141.367 289.328C108.788 281.008 133.676 355.738 177.972 359.754C222.263 363.771 263.881 337.215 276.111 300.904C288.342 264.586 321.481 262.869 321.481 262.869Z" fill="black" stroke="black" stroke-width="5" stroke-miterlimit="10"/>
<path d="M325.784 321.957C320.13 311.904 324.941 302.034 323.037 289.497C320.019 269.575 344.303 250.016 366.774 251.357C396.447 253.124 397.627 359.156 380.43 360.947C370.249 362.01 351.716 353.379 338.267 336.447C333.944 331.004 325.784 321.957 325.784 321.957Z" fill="white" stroke="black" stroke-width="5" stroke-miterlimit="10"/>
<path d="M325.784 321.957C320.13 311.904 324.941 302.034 323.037 289.497C320.019 269.575 344.303 250.016 366.774 251.357C396.447 253.124 397.627 359.156 380.43 360.947C370.249 362.01 351.716 353.379 338.267 336.447C333.944 331.004 325.784 321.957 325.784 321.957Z" stroke="black" stroke-width="5" stroke-miterlimit="10"/>
<path d="M379.16 263.757C378.721 282.355 364.938 315.974 341.609 309.804C315.386 302.858 326.043 318.591 328.083 323.544C330.125 328.493 342.853 337.873 340.231 339.275C337.61 340.669 301.443 327.143 297.963 300.305C294.486 273.465 301.066 259.517 315.006 251.299C328.945 243.08 357.833 241.747 371.68 250.361C385.525 258.978 379.16 263.757 379.16 263.757Z" fill="black" stroke="black" stroke-width="5" stroke-miterlimit="10"/>
<path d="M280.209 364.135C276.506 372.822 293.25 378.447 302.782 379.382C312.315 380.322 326.956 383.369 331.259 391.034" stroke="black" stroke-width="5" stroke-miterlimit="10"/>
<path d="M613.035 635.756C617.53 643.77 621.091 663.79 619.968 675.153" stroke="black" stroke-width="5" stroke-miterlimit="10"/>
</svg>
